src/lib/packages/icons/src/assets/filled/package-check.svg

<svg width="24" height="24" viewBox="0 0 24 24" fill="none" xmlns="http://www.w3.org/2000/svg">
<path d="M12.75 8.95001V3.29999C12.75 3.13399 12.884 3 13.05 3H16.74C19 3 19.25 3.88999 19.62 5.17999L20.674 8.86801C20.729 9.06001 20.585 9.25 20.386 9.25H13.05C12.884 9.25 12.75 9.11601 12.75 8.95001ZM3.61401 9.25H10.95C11.116 9.25 11.25 9.11601 11.25 8.95001V3.29999C11.25 3.13399 11.116 3 10.95 3H7.26001C5.00001 3 4.75 3.88999 4.38 5.17999L3.32605 8.86801C3.27105 9.05901 3.41501 9.25 3.61401 9.25ZM21 11.05V18C21 20 20 21 18 21H6C4 21 3 20 3 18V11.05C3 10.884 3.13405 10.75 3.30005 10.75H20.7C20.866 10.75 21 10.884 21 11.05ZM15.03 13.136C14.737 12.843 14.262 12.843 13.969 13.136L11.166 15.939L10.0291 14.803C9.73605 14.51 9.26102 14.51 8.96802 14.803C8.67502 15.096 8.67502 15.571 8.96802 15.864L10.635 17.531C10.781 17.677 10.973 17.751 11.165 17.751C11.357 17.751 11.5489 17.678 11.6949 17.531L15.028 14.198C15.323 13.904 15.323 13.429 15.03 13.136Z" fill="currentColor"/>
</svg>

<svg xmlns="http://www.w3.org/2000/svg" width="24" height="24" fill="none"><path fill="currentColor" d="M12.75 8.95V3.3a.3.3 0 0 1 .3-.3h3.69c2.26 0 2.51.89 2.88 2.18l1.054 3.688a.3.3 0 0 1-.288.382H13.05a.3.3 0 0 1-.3-.3Zm-9.136.3h7.336a.3.3 0 0 0 .3-.3V3.3a.3.3 0 0 0-.3-.3H7.26C5 3 4.75 3.89 4.38 5.18L3.326 8.868a.3.3 0 0 0 .288.382ZM21 11.05V18c0 2-1 3-3 3H6c-2 0-3-1-3-3v-6.95a.3.3 0 0 1 .3-.3h17.4a.3.3 0 0 1 .3.3Zm-5.97 2.086a.75.75 0 0 0-1.061 0l-2.803 2.803-1.137-1.136a.75.75 0 0 0-1.061 1.061l1.667 1.667a.748.748 0 0 0 1.06 0l3.333-3.333a.75.75 0 0 0 .002-1.062Z"/></svg>
